packages/tokens/icons/cartCrossArrows/size24Px.svg

<svg viewBox="0 0 24 24" fill="none" xmlns="http://www.w3.org/2000/svg" width="1em" height="1em"><circle cx="8" cy="21" r="0.5" stroke="currentColor"/><circle cx="16" cy="21" r="0.5" stroke="currentColor"/><path d="M4.72217 8.5H6.49995L8.5 16.5" stroke="currentColor" stroke-linecap="round" stroke-linejoin="round"/><path d="M7 10.5L17.2024 10.5C17.8582 10.5 18.3365 11.1206 18.1694 11.7548L17.3064 15.0298C17.0746 15.9099 16.2777 16.5224 15.3676 16.5202L8.00121 16.5024C7.44865 16.5011 7 16.9486 7 17.5012V17.5012C7 18.0528 7.44717 18.5 7.99879 18.5H17.5" stroke="currentColor" stroke-linecap="round"/><path d="M15.9999 7.00015L14.5857 8.41436L13.1715 7.00015" stroke="currentColor" stroke-linecap="round" stroke-linejoin="round"/><path d="M14.5 8V6.22076C14.5 5.79033 14.2246 5.40819 13.8162 5.27208L9.18377 3.72792C8.77543 3.59181 8.5 3.20967 8.5 2.77924V2.5" stroke="currentColor" stroke-linecap="round" stroke-linejoin="round"/><path d="M8.08579 7.0856L9.5 8.49981L10.9142 7.0856" stroke="currentColor" stroke-linecap="round" stroke-linejoin="round"/><path d="M9.5 8.00012V6.22076C9.5 5.79033 9.77543 5.40819 10.1838 5.27208L14.8162 3.72792C15.2246 3.59181 15.5 3.20967 15.5 2.77924V2.5" stroke="currentColor" stroke-linecap="round" stroke-linejoin="round"/></svg>

<svg xmlns="http://www.w3.org/2000/svg" fill="none" viewBox="0 0 24 24" width="1em" height="1em"><circle cx="8" cy="21" r=".5" stroke="currentColor"/><circle cx="16" cy="21" r=".5" stroke="currentColor"/><path stroke="currentColor" stroke-linecap="round" stroke-linejoin="round" d="M4.722 8.5H6.5l2 8"/><path stroke="currentColor" stroke-linecap="round" d="M7 10.5h10.202a1 1 0 0 1 .967 1.255l-.863 3.275a2 2 0 0 1-1.938 1.49L8 16.502a.999.999 0 0 0-1.001 1v0a1 1 0 0 0 .999.998H17.5"/><path stroke="currentColor" stroke-linecap="round" stroke-linejoin="round" d="m16 7-1.414 1.414L13.17 7"/><path stroke="currentColor" stroke-linecap="round" stroke-linejoin="round" d="M14.5 8V6.22a1 1 0 0 0-.684-.948L9.184 3.728a1 1 0 0 1-.684-.949V2.5m-.414 4.586L9.5 8.5l1.414-1.414"/><path stroke="currentColor" stroke-linecap="round" stroke-linejoin="round" d="M9.5 8V6.22a1 1 0 0 1 .684-.948l4.632-1.544a1 1 0 0 0 .684-.949V2.5"/></svg>
